!!!!SEGMENT: pl-kozmzk--mzk-m-31--016_szymanowska-maria--preludium-es-dur.krn
!!!cenid: 18xx:452
!!!COM: Szymanowska, Maria
!!!COM-rismID: pe140138
!!!CDT: 1789/12/14-1831/07/25
!!!CNT: Polish
!!!GTL: Vingt Exercices et Préludes pour le Pianoforte
!!!OTL: Preludium Es-dur
!!!OMV: 016
!!!PDT: 1819
!!!AGN: Secular; Prelude
!!!SMS-siglum: PL-KOZmzk
!!!SMS-shelfmark: mzk/m/31
!!!SMS-shelfwork: 001-016 G
!!!SMS-variant:
!!!SMS-altvar:
!!!NIFC-rismSourceID: 1001025323
!!!NIFC-rismChildID: 1001025339
!!!NIFC-islandoraID: pl-kozmzk:6325
!!!URL-pdf-islandora: https://repozytorium.nifc.pl/islandora/object/pl-kozmzk%3A6325/datastream/PDF/view
!!!URL-scan: https://polish.musicsources.pl/pl/lokalizacje/galeria/rekopisy/462 @EN{Scan on Polish Music Sources Website} @PL{Skany w portalu Dziedzictwo Muzyki Polskiej w otwartym dostępie}
!!!ONB-nifc: W źródle numer 15 zamiast 16
!!!AIN: 2 piano
!!!key:
!!!OMD:
!!!OMD-mod: Grazioso
**kern	**kern	**dynam
*part2	*part1	*part1
*staff2	*staff1	*
*Ipiano	*Ipiano	*
*I"Piano	*I"Piano	*
*mI"Pianoforte	*mI"Pianoforte	*
*I'P-no	*I'Pno.	*
*mI'pf	*mI'pf	*
*clefF4	*clefG2	*
*k[b-e-a-]	*k[b-e-a-]	*
*E-:	*E-:	*
*M12/8	*M12/8	*
=1	=1	=1
!LO:SIC:o:s=:v:błednie wpisany numer utworu. Powinien być 16	!	!
!	!LO:TX:a:i:B:rj:t=Grazioso.:mod=	!
!	!LO:MO:mod=!LO&colon;TX&colon;b&colon;i&colon;t=piano e legato	!
!	!LO:TX:b:t=piano e legato	!
4.ryy	(8g/L	.
.	8a-/	.
!	!LO:MO:mod=!LO&colon;TX&colon;a&colon;i&colon;t=m.d.	!
!	!LO:TX:a:t=md.	!
.	8an/	.
4ryy	8b-/	.
.	8g/J)	.
!LO:MO:mod=!LO&colon;TX&colon;a&colon;i&colon;t=m.s.	!	!
!LO:TX:a:t=ms	!	!
!	!LO:SIC:s=8ra:v	!
8e->\	8ryy	.
4.ryy	(8d/L	.
.	8f/	.
!	!LO:MO:mod=!LO&colon;TX&colon;a&colon;i&colon;t=m.d.	!
!	!LO:TX:a:t=md.	!
.	8a-X/	.
4ryy	8cc/	.
.	8b-/J)	.
!LO:MO:mod=!LO&colon;TX&colon;a&colon;i&colon;t=m.s.	!	!
!LO:TX:a:t=ms.	!	!
!	!LO:SIC:s=8ree:v	!
8a->\	8ryy	.
=2	=2	=2
4.ryy	(8g/L	.
.	8a-/	.
.	8an/	.
4ryy	8b-/	.
.	8g/J)	.
!	!LO:SIC:s=8ra:v	!
8e->\	8ryy	.
4.ryy	(8d/L	.
.	8f/	.
.	8a-X/	.
4ryy	8cc/	.
.	8b-/J)	.
!	!LO:SIC:s=8ree:v	!
8a->\	8ryy	.
=3	=3	=3
4.ryy	(8g/L	<
.	8b-/	.
.	8dd-X/	.
4ryy	8ff/	.
.	8ee-/J)	.
!	!LO:SIC:s=8rgg:v	!
8dd>\	8ryy	.
4.ryy	(8cc/L	.
.	8ee-/	.
.	8aa-/	.
4ryy	8ccc/	.
.	8bb-/J)	.
!	!LO:SIC:s=8reee:v	!
!	!	!LO:MO:null:mod=[
8aa->\	8ryy	[[
!!LO:LB:g=original
=4	=4	=4
4.ryy	(8gg/L	>
.	8aa-/	.
.	8aan/	.
4ryy	8bb-/	.
.	8gg/J)	.
!	!LO:SIC:s=8rbb:v	!
8ee->\	8ryy	.
!	!LO:SIC:s=8rbb:v	!
8dd>`\	8ryy	.
4ryy	(8ee-/L	.
.	8cc/J)	.
!	!LO:SIC:s=8rff:v	!
8b->`\	8ryy	.
4ryy	(8cc/L	.
.	8a-/J)	]]
=5	=5	=5
4.ryy	8g/L	.
.	8a-/	.
.	8an/	.
4ryy	8b-/	.
.	8g/J	.
!	!LO:SIC:s=8ra:v	!
8e->\	8ryy	.
4.ryy	8d/L	.
.	8f/	.
.	8a-X/	.
4ryy	8cc/	.
.	8b-/J	.
!	!LO:SIC:s=8ree:v	!
8a->\	8ryy	.
=6	=6	=6
4.ryy	8g-X/L	.
.	8a-/	.
.	8an/	.
4ryy	8b-/	.
.	8g-/J	.
!	!LO:SIC:s=8ra:v	!
8e->\	8ryy	.
4.ryy	8d/L	.
.	8f/	.
.	8a/	.
4ryy	8cc-X/	.
.	8b-/J	.
!	!LO:SIC:s=8ree:v	!
8a->\	8ryy	.
=7	=7	=7
4.ryy	(8g/L	.
.	8b-/	.
.	8dd-X/	.
4ryy	8ff-X/	.
.	8ee-/J)	.
!	!LO:SIC:s=8rgg:v	!
8dd>`\	8ryy	.
4.ryy	(8cc/L	.
.	8ee-/	.
.	8gg-X/	.
4ryy	8bb--/	.
.	8aa-/J)	.
!	!LO:SIC:s=8reee:v	!
8gg>\	8ryy	.
!!LO:LB:g=original
=8	=8	=8
4.ryy	(8ff/L	.
.	8aa-/	.
.	8ccc-X/	.
4ryy	8eee--/	.
.	8ddd-X/J)	.
!	!LO:SIC:s=8rfff:v	!
8ccc>\	8ryy	.
4ryy	(8bb--/L	.
.	8aa-/J)	.
!	!LO:SIC:s=8rddd:v	!
8gg-X>\	8ryy	.
4ryy	(8ff/L	.
.	8ee--/J)	.
!LO:SIC:o:s=:v:belka przez kreskę	!	!
!	!LO:SIC:s=8raa:v	!
8dd-X>\L	8ryy	.
=9	=9	=9
!	!LO:SIC:s=8raa:v	!
8cc-X>\J	8ryy	.
4ryy	8aa-^>/L	.
.	8cc/J	.
!	!LO:SIC:s=8ree:v	!
8a->\	8ryy	.
4ryy	8ff^>/L	.
.	8a-/J	.
!	!LO:SIC:s=8ree:v	!
8f>\	8ryy	.
4ryy	8dd^>/L	.
.	8f/J	.
!	!LO:SIC:s=8ree:v	!
8d>\	8ryy	.
4ryy	8cc-X^>/L	.
.	8d/J	.
=10	=10	=10
!	!LO:SIC:s=8rb:v	!
8c-X>\	8ryy	.
4ryy	8a-/L	.
.	8c/J	.
8A-\	8ryy	.
4ryy	8f/L	.
.	8A-</J	.
8F\	8ryy	.
4ryy	8d</L	.
.	8F</J	.
8D\	8ryy	.
4ryy	8c-X</L	.
.	8B-</J	.
!!LO:LB:g=original
=11	=11	=11
!	!LO:SIC:s=8rf<:v	!
!	!	!LO:MO:null:mod=<
4.E-\	8r<	.
.	8c-X<^/L	.
.	8B-</J	.
!	!	!LO:DY:t=crescendo
!	!	!LO:MO:null:mod=.
4.D-X\	8r<	<
.	8c-<^/L	.
.	8B-</J	.
4.C-X\	8r<	.
.	8e-</L	.
.	8G-X</J	.
4.CC-X\	8r<	.
.	8f<L 8An</	.
.	8e-</J	.
=12	=12	=12
8BB- 8BBB-/	8d\L	.
4r	8f\	.
.	8a-\	.
4r	8cc-X\	.
.	8d\J	.
!	!LO:MO:mod=!LO&colon;TX&colon;a&colon;i&colon;t=m.g.	!
!	!LO:TX:a:t=mg	!
8ccc-X>/L	8r	.
8bb->/J	8d\L	.
4r	8f\	.
.	8a-\	.
4r	8b-\	.
.	8d\J	.
!LO:TX:a:t=P:problem=mixed beam	!	!
8B-\L	8r	.
=13	=13	=13
8BB-\J	8e-\L	.
4r	8g-X\	.
.	8b-\	.
4r	8ee-\	.
.	8e-\J	.
!	!LO:MO:mod=!LO&colon;TX&colon;a&colon;i&colon;t=m.g.	!
!	!LO:TX:a:t=mg	!
8bb->/L	8r	.
8eee->/J	8c-X\L	.
4r	8e-\	.
.	8f\	.
4r	8an\	.
.	8e-\J	.
8c-X^\L	8r	.
=14	=14	=14
8B-\J	8d\L	.
4r	8f\	.
.	8a-\	.
4r	8cc-X\	.
.	8d\J	.
!LO:SIC:s=8ccc-X>^>/L:v	!	!
8ccc-X>^/L	8r	.
8bb->/J	8d\L	.
4r	8f\	.
.	8a-\	.
4r	8b-\	.
.	8d\J	.
!LO:SIC:s=8B-\L:v	!	!
8B-\	8r	.
!!LO:LB:g=original
=15	=15	=15
!LO:SIC:s=8BB-/J:v	!	!
8BB-/	8e-\L	.
4r	8g-X\	.
.	8b-\	.
4r	8ee-\	.
.	8e-\J	.
*8va	*	*
8eee->/L	8r	.
8aaan>/J	8c-X\L	.
*X8va	*	*
4r	8e-\	.
.	8f\	.
4r	8an\	.
.	8e-\J	.
8C-X\L	8r	.
=16	=16	=16
8BB-\J	8d/L	.
4r	8f/	.
.	8b-/	.
8r	8dd/	.
8F\L	8f/	.
8B-\	8b-/J	.
8d\	8dd\L	.
8B-\	8b-\	.
8d\	8dd\	.
!LO:SIC:s=8f\:v	!	!
8f>\	8ff\	.
!LO:SIC:s=8d\:v	!	!
8d>\	8dd\	.
!LO:SIC:s=8f\J:v	!	!
8f>\J	8ff\J	.
=17	=17	=17
*clefG2	*	*
8b-/L	8bb-\L	.
8f/	8ff\	.
8b-/	8bb-\	.
8dd/	8ddd\	.
8b-/	8bb-\	.
8dd/J	8ddd\J	.
8ff\L	8fff\L	.
8dd\	8ddd\	.
8ff\	8fff\	.
8bb-\	8bbb-\	.
8ff\	8fff\	.
8dd\J	8ddd\J	.
*kcancel	*	*
=18	=18	=18
8b-\	8bb-\L	.
4r	8ff\	.
.	8dd\J	.
*clefF4	*	*
8B-\	8b-/L	.
4r	8f/	.
.	8d/J	.
8BB-\	8B-</L	.
4r	8F</	.
.	8D</J	.
8BB-\	8BB-</L	.
!LO:SIC:s=4rGGG:v	!	!
4r	8FF</	.
.	8DD</J	.
!!LO:LB:g=original
=19||	=19||	=19||
*k[f#c#g#d#]	*k[f#c#g#d#]	*
1.BB 1.BBB	8r	.
.	8aa^\L	ff
.	8dd#\J	.
.	8aa^\L	.
.	8ff#\	.
.	8dd#\J	.
.	8a^/L	.
.	8f#/	.
.	8d#/J	.
.	8A<^/L	.
.	8F#</	.
.	8D#</J	.
=20	=20	=20
4EE\	8E</	.
.	8g#L 8e\	.
8r	8aJ 8f#\	.
4r	8bL 8g#\	.
.	8a 8f#\	.
8r	8g#J 8e\	.
!	!LO:MO:mod=!LO&colon;TX&colon;a&colon;i&colon;t=m.g.	!
!	!LO:TX:a:t=mg	!
!	!LO:MO:mod=!LO&colon;TX&colon;b&colon;i&colon;t=ben marcato	!
!	!LO:TX:b:t=ben mar-ca-te	!
!	!LO:SIC:s=4rg:v	!
8bb>L 8gg#>/	4r	.
8aa> 8ff#>/	.	.
8gg#>J 8ee>/	8r	.
*	*8va	*
!	!LO:MO:mod=!LO&colon;TX&colon;b&colon;i&colon;t=m.d.	!
!	!LO:TX:b:t=md.	!
4r	8bbbL 8ggg#\	.
.	8aaa 8fff#\	.
8r	8ggg#J 8eee\	.
*clefG2	*	*
=21	=21	=21
4b 4B/	8aaaL 8fff#\	.
.	8bbb 8ggg#\	.
8r	8aaaJ 8fff#\	.
4aa 4ff# 4b\	8ggg#L 8eee\	.
.	8fff# 8ddd#\	.
8r	8eeeJ 8ccc#\	.
4a 4f# 4B/	8ddd#L 8bb\	.
.	8ccc# 8aa\	.
8r	8bbJ 8gg#\	.
*clefF4	*	*
*	*X8va	*
!	!LO:MO:mod=!null:null	!
!	!LO:TX:a:t=loco	!
4.d# 4.D#^\	8aaL 8ff#\	.
.	8bb 8gg#\	.
.	8aaJ 8ff#\	.
!!LO:PB:g=original
=22	=22	=22
4e 4E\	8gg# 8ee\	.
.	8g#L 8e/	.
8r	8aJ 8f#/	.
4r	8bL 8g#\	.
.	8a 8f#\	.
8r	8g#J 8e\	.
!	!LO:MO:mod=!LO&colon;TX&colon;a&colon;i&colon;t=m.g.	!
!	!LO:TX:a:t=mg	!
8bb>L 8gg#>/	4r	.
8aa> 8ff#>/	.	.
8gg#>J 8ee>/	8r	.
*	*8va	*
!	!LO:MO:mod=!LO&colon;TX&colon;b&colon;i&colon;t=m.d.	!
!	!LO:TX:b:t=md.	!
4r	8bbbL 8ggg#\	.
.	8aaa 8fff#\	.
8r	8ggg#J 8eee\	.
=23	=23	=23
*clefG2	*	*
4b 4B/	8aaaL 8fff#\	.
.	8bbb 8ggg#\	.
8r	8aaaJ 8fff#\	.
4aa 4ff# 4b\	8ggg#L 8eee\	.
.	8fff# 8ddd#\	.
8r	8eeeJ 8ccc#\	.
4a 4f# 4B/	8ddd#L 8bb\	.
.	8ccc# 8aa\	.
8r	8ddd#J 8bb\	.
*clefF4	*	*
*	*X8va	*
!	!LO:MO:mod=!null:null	!
!	!LO:TX:a:t=loco	!
4.d# 4.D#^\	8aaL 8ff# 8g#\	.
.	8bb 8gg#\	.
.	8aaJ 8ff#\	.
*kcancel	*	*
=24	=24	=24
4e 4E\	4gg 4ee\	.
8r	8r	.
=-	=-	=-
*k[]	*k[]	*
4.f-X 4.F-X\	8b-XL 8a-X\	.
.	8dd\	.
.	8b-J 8a-\	.
4e-X 4E-X\	4ee-X 4g\	.
8r	8r	.
!	!LO:MO:mod=!LO&colon;TX&colon;a&colon;i&colon;t=m.g.	!
!	!LO:TX:a:t=mg	!
4.ee-X> 4.e-X>\	8aanL 8gg/	.
.	8ccc#X/	.
.	8aaJ 8gg/	.
!!LO:LB:g=original
=25	=25	=25
4ddd>\ 4ff#X>\ 4dd>\ 4d>\	4ddd/	.
8r	8r	.
!	!LO:MO:mod=!LO&colon;TX&colon;a&colon;i&colon;t=m.d.	!
!	!LO:TX:a:t=md.	!
4.e-- 4.E--\	8a-XL 8g-X\	.
.	8cc\	.
.	8a-J 8g-\	.
4d-X 4D-X\	4dd-X 4f\	.
8r	8r	.
!	!LO:MO:mod=!LO&colon;TX&colon;a&colon;i&colon;t=m.g.	!
!	!LO:TX:a:t=mg.	!
4.dd-X> 4.d-X>\	8ggL 8ffn/	.
.	8bbn/	.
.	8ggJ 8ff/	.
=26	=26	=26
4cc> 4c>\	4ccc 4ee/	.
8r	8r	.
!	!LO:MO:mod=!LO&colon;TX&colon;a&colon;i&colon;t=m.d.	!
!	!LO:TX:a:t=md.	!
4.c 4.C\	8f#XL 8e/	.
.	8a#X/	.
.	8f#J 8e/	.
4B 4BB\	4b 4d#X\	.
8r	8r	.
!	!LO:MO:mod=!LO&colon;TX&colon;a&colon;i&colon;t=m.g.	!
!	!LO:TX:a:t=mg.	!
4.cc> 4.c>\	8ffnL 8ee-X/	.
.	8aan/	.
.	8ffJ 8ee-/	.
=27||	=27||	=27||
*k[b-e-a-]	*k[b-e-a-]	*
*	*^	*
4b-> 4B->\	4bb- 4dd/	4ryyyy	.
8r	8r	8r	.
4.A- 4.AA-\	8b-/L	4.d\	rfz
.	8cc/	.	.
.	8b-/J	.	.
4.G 4.GG/	8b-/L	4.e-\	.
.	8cc/	.	.
.	8b-/J	.	.
4.D 4.DD/	8b-/L	4.a-\	.
.	8cc/	.	.
.	8b-/J	.	.
!!LO:LB:g=original
=28	=28	=28	=28
4E- 4EE-/	4b-/	4g\	.
8r	8r	8r	.
!!LO:MO:ori
4.F 4.FF/	8g/L	4Bn\	.
.	8an/	.	.
.	8g/J	8ryy	<
!!LO:MO:end
!!LO:MO:mod
!! 4.F 4.FF/	8g/L	4.Bn\	.
!! .	8an/	.	.
!! .	8g/J	.	.
!!LO:MO:end
!	!	!	!LO:MO:null:mod=<
4.G 4.GG/	8g/L	4.c\	.
.	8a/	.	.
.	8g/J	.	.
4.BBn 4.BBBn/	8g/L	4.f\	.
.	8a/	.	.
!	!	!	!LO:MO:null:mod=[[
.	8g/J	.	[
=29	=29	=29	=29
4C 4CC/	4g/	4e-\	.
8r	8r	8r	.
*clefG2	*	*	*
(4.an^>/	8ff/L	4.ee-\	.
.	8gg/	.	.
.	8ff/J	.	.
4b-/)	4ff/	4dd\	.
8r	8r	8ryy	.
(4.a-X^>/	8bb-/L	4.dd\	.
.	8ccc/	.	.
.	8bb-/J	.	.
=30	=30	=30	=30
4g/)	4bb-/	4ee-\	.
8r	8r	8r	.
(4.a-/	8bb-/L	4.cc\	.
.	8aa-/	.	.
.	8ff/J	.	.
4b-/)	4ee-/	4g\	.
8r	8r	8ryy	.
4B-/	4dd/	4a-\	.
8r	8r	8ryy	.
*	*v	*v	*
!!LO:LB:g=original
=31	=31	=31
*clefF4	*	*
4.ryy	(8g/L	p
.	8a-/	.
.	8an/	.
4ryy	8b-/	.
.	8g/J)	.
!	!LO:SIC:s=8ra:v	!
8e->\	8ryy	.
4.ryy	(8d/L	.
.	8f/	.
.	8a-X/	.
4ryy	8cc/	.
.	8b-/J)	.
!	!LO:SIC:s=8ree:v	!
8a->\	8ryy	.
=32	=32	=32
4.ryy	8g/L	.
.	8a-/	.
.	8an/	.
4ryy	8b-/	.
.	8g/J	.
!	!LO:SIC:s=8ra:v	!
8e->\	8ryy	.
4.ryy	8d/L	.
.	8f/	.
.	8a-X/	.
!LO:SIC:s=4r:v	!	!
4r>	8cc-X/	.
.	8b-/J	.
!	!LO:SIC:s=8ree:v	!
8a->\	8ryy	.
=33	=33	=33
!	!LO:MO:mod=*null:null	!
*	*ped	*
!LO:MO:mod=*ped:null	!	!
*null	*	*
8e- 8E-\	8g\Lyy	.
4r	8b-\	.
.	8ee-\	.
!	!LO:MO:mod=!LO&colon;TX&colon;a&colon;i&colon;t=m.g.	!
!	!LO:TX:a:t=mg.	!
8eee->/	8gg\	.
!LO:SIC:s=4rccc>:v	!	!
4r>	8dd\	.
.	8ee-\J	.
!LO:MO:mod=*Xped:null	!	!
*null	*	*
8e- 8E-\	8g\L	.
4r	8dd-X\	.
.	8ee-\	.
8eee->/	8gg\	.
!LO:SIC:s=4rccc>:v	!	!
4r>	8ddn\	.
.	8ee-\J	.
!!LO:LB:g=original
=34	=34	=34
8e- 8E-\	8a-\L	.
4r	8cc\	.
.	8ee-\	.
8eee->/	8aa-\	.
!LO:SIC:s=4rccc>:v	!	!
4r>	8ddn\	.
.	8ee-\J	.
8e- 8E-\	8a-\L	.
4r	8bn\	.
.	8dd\	.
(>4.fff>/	8aa-\	.
.	8b\	.
.	8dd\J	.
=35	=35	=35
8eee->/)	8g\L	.
!LO:SIC:s=4rccc>:v	!	!
4r>	8ee-\	.
.	8b-X\	.
8E-\	8gg\	.
4r	8ddn\	.
.	8ee-\J	.
8eee->/	8g\L	.
!LO:SIC:s=4rccc>:v	!	!
4r>	8ee-\	.
.	8dd-X\	.
8E-\	8gg\	.
4r	8ddn\	.
.	8ee-\J	.
=36	=36	=36
8eee->/	8a-\L	.
!LO:SIC:s=4rccc>:v	!	!
4r>	8ee-\	.
.	8cc\	.
8E-\	8aa-\	.
4r	8dd\	.
.	8ee-\J	.
8ddd>/	8a-\L	.
!LO:SIC:s=4rccc>:v	!	!
4r>	8dd\	.
.	8bn\	.
8E-\	8aa-\	.
4r	8b\	.
.	8dd\J	.
!!LO:LB:g=original
=37	=37	=37
8eee->/	8g\L	.
!LO:SIC:s=4rddd>:v	!	!
4r>	8ee-\	.
.	8b-X\	.
8E-\	8gg\	.
4r	8dd\	.
.	8ee-\J	.
8ggg>/	8g\L	.
!LO:SIC:s=4rddd>:v	!	!
4r>	8ee-\	.
.	8b-\	.
8E-\	8gg\	.
4r	8dd\	.
.	8ee-\J	.
=38	=38	=38
8bbb->/	8g\L	.
!LO:SIC:s=4rddd>:v	!	!
4r>	8ee-\	.
.	8b-\	.
8E-\	8gg\	.
4r	8dd\	.
.	8ee-\J	.
8ggg>/	8g\L	.
!LO:SIC:s=4rddd>:v	!	!
4r>	8ee-\	.
.	8b-\	.
8E-\	8gg\	.
4r	8dd\	.
.	8ee-\J	.
=39	=39	=39
4eee->/	4ee- 4g\	.
8r	8r	.
4e- 4E-\	4gg 4ee- 4b- 4g\	.
8r	8r	.
!LO:SIC:s=2.E-; 2.EE-/:v	!	!
2.E- 2.EE-/	2ee- 2b- 2g 2e-;/	.
.	4ryy	.
!LO:MO:mod=!null:null	!	!
!LO:TX:b:t=3043	!	!
==	==	==
*-	*-	*-
!!!system-decoration: {(s1,s2)}
!!!RDF**kern: > = above
!!!RDF**kern: < = below
!!!filter-modern: tie -s | sic -sq | shed -e "s/LO:DY:(a|b|rj)/LO:dy:$1/L" | shed -e "s/TX(.*):t=P:/tx$1:t=P:/LG" | modori -m | shed -e "s/yy//"
!!!ENC: Berenika Jozajtis
!!!END: 2020-06-17
!!!EED: Leszek Kubiak
!!!EEV: 2020-07-21
!!!EED-modern: Antoni Szymański
!!!END-modern: 2022-10-01
!!!YEC: Copyright 2022 Narodowy Instytut Fryderyka Chopina (https://polishscores.org)
!!!YEM: License CC-BY-4.0 (https://creativecommons.org/licenses/by/4.0)
